img/feature-background.svg

<svg fill="none" height="592" viewBox="0 0 512 592" width="512" xmlns="http://www.w3.org/2000/svg"><g fill="#151923" fill-opacity=".02" transform="translate(0 -216.524)"><path d="m0 512.475 512.475-512.475 247.972 247.972-16.531 16.531-198.378-198.3771-66.126 66.1261-16.531-16.532 66.126-66.1256-16.532-16.5315-115.72 115.7201 33.063 33.063-49.594 49.594-16.532-16.531 33.063-33.063-16.531-16.531-115.721 115.72 49.595 49.594 49.594-49.594-16.531-16.532-33.063 33.063-16.532-16.531 49.595-49.595 33.063 33.063 82.657-82.657-33.063-33.063 16.531-16.531 33.063 33.063 66.126-66.1262 181.846 181.8462-16.531 16.531-66.126-66.125-66.126 66.125-33.063-33.063-16.531 16.532 115.72 115.72 16.532-16.531-66.126-66.126 16.531-16.532 82.658 82.658-49.595 49.594-148.783-148.783 49.594-49.595 33.063 33.063 49.595-49.594-82.658-82.657-148.783 148.783 33.063 33.063-115.72 115.72-66.126-66.126-16.532 16.532 82.658 82.657 132.252-132.252 16.531 16.532-66.126 66.126 115.72 115.72 66.126-66.126 16.532 16.531-33.063 33.063 82.657 82.658 16.532-16.532-33.063-33.063 16.531-16.531 99.189 99.189 49.594-49.595-16.531-16.531-33.063 33.063-16.531-16.532 33.062-33.063-66.125-66.126 16.531-16.531 33.063 33.063 33.063-33.063 16.531 16.531-33.063 33.063 49.595 49.595 82.657-82.658-66.126-66.125 16.532-16.532 82.657 82.657-165.315 165.315 33.063 33.063-82.657 82.657-49.594-49.594 16.531-16.531 33.063 33.062 49.594-49.594-82.657-82.657-99.189 99.189-49.594-49.595 16.531-16.531 33.063 33.063 49.595-49.595-82.658-82.657-115.72 115.72 33.063 33.063-49.594 49.594-16.532-16.531 33.063-33.063-33.063-33.063 33.063-33.063-33.063-33.063 16.532-16.531 33.063 33.063 49.594-49.595-115.72-115.72-49.595 49.594 33.063 33.063-16.531 16.532-132.252-132.252-49.594 49.594 33.062 33.063-16.531 16.532-49.594-49.595 115.72-115.72 66.126 66.126 82.657-82.657-16.531-16.532-66.126 66.126-66.126-66.126-148.7833 148.783 82.6573 82.658 49.594-49.595-33.063-33.063 16.532-16.531 132.252 132.252 49.594-49.595-33.063-33.063 16.532-16.531 82.657 82.657-16.531 16.532-33.063-33.063-49.595 49.594 33.063 33.063-33.063 33.063 33.063 33.063-33.063 33.063 49.595 49.594 82.657-82.657-33.063-33.063 82.657-82.657 49.595 49.594-16.532 16.532-33.063-33.063-49.594 49.594 82.657 82.657 99.189-99.188 49.595 49.594-16.532 16.532-33.063-33.063-49.594 49.594 66.126 66.126-115.721 115.72-49.594-49.594 33.063-33.063-66.126-66.126 16.531-16.532 66.126 66.126 33.063-33.063 16.532 16.532-66.126 66.126 16.531 16.531 82.658-82.657-49.595-49.595-33.063 33.063-66.126-66.125-132.251 132.251-115.721-115.72 49.595-49.594 16.531 16.531-33.063 33.063 82.658 82.657 16.531-16.531-66.126-66.126 33.063-33.063-33.063-33.063 33.063-33.063-115.72-115.72-66.126 66.126-66.126-66.126-33.0628 33.063-16.5312-16.532 33.0627-33.063-16.5315-16.531-49.5942 49.594 148.783 148.784 66.126-66.126 16.531 16.531-66.125 66.126 16.531 16.531 82.657-82.657-49.594-49.594-66.126 66.126-82.6573-82.658 16.5313-16.531 66.126 66.126 66.126-66.126 82.657 82.657-99.189 99.189 132.252 132.252-16.531 16.531z"/><path d="m760.447 281.035 16.531-16.531 247.972 247.972-512.475 512.474-148.783-148.782 16.531-16.532 33.063 33.063 33.063-33.063 49.594 49.595-16.531 16.531-33.063-33.063-16.532 16.532 82.658 82.657 49.594-49.594-16.531-16.532-33.063 33.063-16.532-16.531 33.063-33.063-66.126-66.126 33.063-33.063-16.531-16.532-66.126 66.126-16.531-16.531 82.657-82.657 49.594 49.594-33.063 33.063 82.658 82.657 247.972-247.972-33.063-33.063 148.783-148.783 16.531 16.532-132.251 132.251 16.531 16.532 148.783-148.783-148.783-148.783-49.594 49.594 66.125 66.126-49.594 49.594-16.531-16.531 33.063-33.063-49.595-49.595-33.063 33.063-33.063-33.063-49.594 49.595 66.126 66.126-16.532 16.531-66.125-66.126-33.063 33.063-16.532-16.531 33.063-33.063-49.594-49.595-66.126 66.126-82.658-82.657 66.126-66.126-66.126-66.126 115.721-115.72 49.594 49.594-16.531 16.532-33.063-33.063-82.658 82.657 99.189 99.189-49.594 49.594-16.532-16.531 33.063-33.063-16.531-16.531-49.595 49.594 49.595 49.594 66.126-66.126 66.126 66.126 82.657-82.657-99.189-99.189 16.532-16.531 66.125 66.126 33.063-33.063 49.595 49.594-16.532 16.532-33.063-33.063-16.531 16.531 33.063 33.063-33.063 33.063 16.531 16.531 82.658-82.657z"/></g></svg>

<svg width="512" height="592" viewBox="0 0 512 592" fill="none" xmlns="http://www.w3.org/2000/svg">
<path d="M0 512.475L512.475 0L760.447 247.972L743.916 264.503L545.538 66.1259L479.412 132.252L462.881 115.72L529.007 49.5944L512.475 33.0629L396.755 148.783L429.818 181.846L380.224 231.44L363.692 214.909L396.755 181.846L380.224 165.315L264.503 281.035L314.098 330.629L363.692 281.035L347.161 264.503L314.098 297.566L297.566 281.035L347.161 231.44L380.224 264.503L462.881 181.846L429.818 148.783L446.349 132.252L479.412 165.315L545.538 99.1888L727.384 281.035L710.853 297.566L644.727 231.441L578.601 297.566L545.538 264.503L529.007 281.035L644.727 396.755L661.259 380.224L595.133 314.098L611.664 297.566L694.322 380.224L644.727 429.818L495.944 281.035L545.538 231.44L578.601 264.503L628.196 214.909L545.538 132.252L396.755 281.035L429.818 314.098L314.098 429.818L247.972 363.692L231.44 380.224L314.098 462.881L446.35 330.629L462.881 347.161L396.755 413.287L512.475 529.007L578.601 462.881L595.133 479.412L562.07 512.475L644.727 595.133L661.259 578.601L628.196 545.538L644.727 529.007L743.916 628.196L793.51 578.601L776.979 562.07L743.916 595.133L727.385 578.601L760.447 545.538L694.322 479.412L710.853 462.881L743.916 495.944L776.979 462.881L793.51 479.412L760.447 512.475L810.042 562.07L892.699 479.412L826.573 413.287L843.105 396.755L925.762 479.412L760.447 644.727L793.51 677.79L710.853 760.447L661.259 710.853L677.79 694.322L710.853 727.384L760.447 677.79L677.79 595.133L578.601 694.322L529.007 644.727L545.538 628.196L578.601 661.259L628.196 611.664L545.538 529.007L429.818 644.727L462.881 677.79L413.287 727.384L396.755 710.853L429.818 677.79L396.755 644.727L429.818 611.664L396.755 578.601L413.287 562.07L446.35 595.133L495.944 545.538L380.224 429.818L330.629 479.412L363.692 512.475L347.161 529.007L214.909 396.755L165.315 446.349L198.377 479.412L181.846 495.944L132.252 446.349L247.972 330.629L314.098 396.755L396.755 314.098L380.224 297.566L314.098 363.692L247.972 297.566L99.1887 446.349L181.846 529.007L231.44 479.412L198.377 446.349L214.909 429.818L347.161 562.07L396.755 512.475L363.692 479.412L380.224 462.881L462.881 545.538L446.35 562.07L413.287 529.007L363.692 578.601L396.755 611.664L363.692 644.727L396.755 677.79L363.692 710.853L413.287 760.447L495.944 677.79L462.881 644.727L545.538 562.07L595.133 611.664L578.601 628.196L545.538 595.133L495.944 644.727L578.601 727.384L677.79 628.196L727.385 677.79L710.853 694.322L677.79 661.259L628.196 710.853L694.322 776.979L578.601 892.699L529.007 843.105L562.07 810.042L495.944 743.916L512.475 727.384L578.601 793.51L611.664 760.447L628.196 776.979L562.07 843.105L578.601 859.636L661.259 776.979L611.664 727.384L578.601 760.447L512.475 694.322L380.224 826.573L264.503 710.853L314.098 661.259L330.629 677.79L297.566 710.853L380.224 793.51L396.755 776.979L330.629 710.853L363.692 677.79L330.629 644.727L363.692 611.664L247.972 495.944L181.846 562.07L115.72 495.944L82.6572 529.007L66.126 512.475L99.1887 479.412L82.6572 462.881L33.063 512.475L181.846 661.259L247.972 595.133L264.503 611.664L198.378 677.79L214.909 694.321L297.566 611.664L247.972 562.07L181.846 628.196L99.1887 545.538L115.72 529.007L181.846 595.133L247.972 529.007L330.629 611.664L231.44 710.853L363.692 843.105L347.161 859.636L0 512.475Z" transform="translate(0 -216.524)" fill="#151923" fill-opacity="0.02"/>
<path d="M760.447 281.035L776.978 264.504L1024.95 512.476L512.475 1024.95L363.692 876.168L380.223 859.636L413.286 892.699L446.349 859.636L495.943 909.231L479.412 925.762L446.349 892.699L429.817 909.231L512.475 991.888L562.069 942.294L545.538 925.762L512.475 958.825L495.943 942.294L529.006 909.231L462.88 843.105L495.943 810.042L479.412 793.51L413.286 859.636L396.755 843.105L479.412 760.448L529.006 810.042L495.943 843.105L578.601 925.762L826.573 677.79L793.51 644.727L942.293 495.944L958.824 512.476L826.573 644.727L843.104 661.259L991.887 512.476L843.104 363.693L793.51 413.287L859.635 479.413L810.041 529.007L793.51 512.476L826.573 479.413L776.978 429.818L743.915 462.881L710.852 429.818L661.258 479.413L727.384 545.539L710.852 562.07L644.727 495.944L611.664 529.007L595.132 512.476L628.195 479.413L578.601 429.818L512.475 495.944L429.817 413.287L495.943 347.161L429.817 281.035L545.538 165.315L595.132 214.909L578.601 231.441L545.538 198.378L462.88 281.035L562.069 380.224L512.475 429.818L495.943 413.287L529.006 380.224L512.475 363.693L462.88 413.287L512.475 462.881L578.601 396.755L644.727 462.881L727.384 380.224L628.195 281.035L644.727 264.504L710.852 330.63L743.915 297.567L793.51 347.161L776.978 363.693L743.915 330.63L727.384 347.161L760.447 380.224L727.384 413.287L743.915 429.818L826.573 347.161L760.447 281.035Z" transform="translate(0 -216.524)" fill="#151923" fill-opacity="0.02"/>
</svg>
